contributed-vectors/sunvox.svg

<svg xmlns="http://www.w3.org/2000/svg" width="192" height="192"><rect width="152" height="152" x="20" y="20" opacity=".63" rx="9.935" style="fill:#d8d8d8;opacity:1"/><path d="M66 56v24H54v12h12v24h12v12H54v12h84v-12h-24v-12h12V92h12V80h-12V56h-24v12h12v36h-12v24H90v-24H78V68h12V56H66z" style="fill:#56595b;paint-order:stroke fill markers;stroke-width:.75"/><path d="M90-92h12v12H90z" style="fill:#56595b;paint-order:stroke fill markers;stroke-width:.53033" transform="scale(1 -1)"/></svg>

<?xml version="1.0" encoding="UTF-8" standalone="no"?>
<svg
   xmlns:dc="http://purl.org/dc/elements/1.1/"
   xmlns:cc="http://creativecommons.org/ns#"
   xmlns:rdf="http://www.w3.org/1999/02/22-rdf-syntax-ns#"
   xmlns:svg="http://www.w3.org/2000/svg"
   xmlns="http://www.w3.org/2000/svg"
   xmlns:sodipodi="http://sodipodi.sourceforge.net/DTD/sodipodi-0.dtd"
   xmlns:inkscape="http://www.inkscape.org/namespaces/inkscape"
   width="192"
   height="192"
   version="1.1"
   viewBox="0 0 192 192"
   id="svg10"
   sodipodi:docname="sunvox.svg"
   inkscape:version="0.92.4 (5da689c313, 2019-01-14)">
  <metadata
     id="metadata16">
    <rdf:RDF>
      <cc:Work
         rdf:about="">
        <dc:format>image/svg+xml</dc:format>
        <dc:type
           rdf:resource="http://purl.org/dc/dcmitype/StillImage" />
      </cc:Work>
    </rdf:RDF>
  </metadata>
  <defs
     id="defs14" />
  <sodipodi:namedview
     pagecolor="#ffffff"
     bordercolor="#666666"
     borderopacity="1"
     objecttolerance="10"
     gridtolerance="10"
     guidetolerance="10"
     inkscape:pageopacity="0"
     inkscape:pageshadow="2"
     inkscape:window-width="1920"
     inkscape:window-height="1017"
     id="namedview12"
     showgrid="true"
     inkscape:zoom="3.4766083"
     inkscape:cx="101.17265"
     inkscape:cy="107.4497"
     inkscape:window-x="-8"
     inkscape:window-y="-8"
     inkscape:window-maximized="1"
     inkscape:current-layer="svg10">
    <inkscape:grid
       type="xygrid"
       id="grid823" />
  </sodipodi:namedview>
  <rect
     x="20"
     y="20"
     width="152"
     height="152"
     rx="9.9346"
     opacity=".63"
     style="fill:#d8d8d8;opacity:1"
     id="rect2" />
  <path
     style="fill:#56595b;paint-order:stroke fill markers;stroke-width:.75"
     d="M 66 56 L 66 80 L 54 80 L 54 92 L 66 92 L 66 116 L 78 116 L 78 128 L 54 128 L 54 140 L 90 140 L 102 140 L 138 140 L 138 128 L 114 128 L 114 116 L 126 116 L 126 92 L 138 92 L 138 80 L 126 80 L 126 56 L 102 56 L 102 68 L 114 68 L 114 104 L 102 104 L 102 128 L 90 128 L 90 104 L 78 104 L 78 68 L 90 68 L 90 56 L 66 56 z "
     id="path4" />
  <rect
     transform="scale(1,-1)"
     x="90"
     y="-92"
     width="12"
     height="12"
     style="fill:#56595b;paint-order:stroke fill markers;stroke-width:.53033"
     id="rect6" />
</svg>
